X: 783
T: Gece Sessiz ve Karanlık
C: Gültekin Çeki
O: Turkey
F: http://compmusic.upf.edu/node/140
N: segah--sarki--aksak--gece_sessiz--gultekin_ceki
N: makam= segah
N: form= sarki
N: usul= aksak = 9/8
M: 9/8
L: 1/16
K: C _1/4B _1/4e ^f 
Q: 1/4=108
%%MIDI tuningsystem comma53
B4 G2B2 B4 d4 (3cBc | d2 cB=f2 eddc B^AB6  | \
w:  *  Ge ce  ses siz   |  *  *  *  ve  ka *  ran *  *  *  lık   | 
B4 d2B2 c2d2 _2/4e2d2 c2 | 
w:  *  yi ne  her  *  şey   | 
B2 d2d2 d2d4d3/2c/ B^ABc  | B4 G2B2 B4 d4 (3cBc | \
w:  *  *  u yu muş   SAZ  |  *  Ge ce  ses siz   | 
d2 cB=f2 eddc B^AB6  | 
w:  *  *  *  ve  ka *  ran *  *  *  lık   | 
B4 d2B2 c2d2 _2/4e2d2 c2 | B2 d2d2 d2d4d3/2c/ B^ABc  | \
w:  *  yi ne  her  *  şey   |  *  *  u yu muş   SAZ  | 
d4 d2g2 f2(3gfg e4 =f2 | 
w:  *  Bi li rim  *  *  *  sus  | 
ed dedc B^AB4c4(3BAB  | c4 B2d2 ^c2(3dcd B4 =c2 | 
w:  *  *  *  *  ma *  ya *  cak  kalb_  |  *  i  vî râ *  *  *  nım  | 
B3^AG2 A2B4d3/2c/ BABc  | d4 d2g2 f2(3gfg e4 =f2 | \
w:  *  *  da ki  kuş   SAZ  |  *  Bi li rim  *  *  *  sus  | 
ed dedc B^AB4c4(3BAB  | 
w:  *  *  *  *  ma *  ya *  cak  kalb_  | 
c4 B2d2 ^c2(3dcd B4 =c2 | B3^AG2 A2B4g3/2f/ edeg  | \
w:  *  i  vî râ *  *  *  nım  |  *  *  da ki  kuş   SAZ  | 
f4 d2f2 f4 efga fg | 
w:  *  O  ye şil  bah  | 
e2 {f}e=fed dedc (3B^ABd4^c2  | d4 =fed^c d2=cB cdc2 d2 | 
w:  *  *  *  *  çe *  le *  rin  *  *  *  *  gül  |  *  le *  ri  *  sol *  *  muş   | 
_3/4ef edgf edd4g3/2f/ _1/4edeg  | \
w:  *  *  *  *  ku *  ru *  muş  SAZ  | 
f4 d2f2 f4 efga fg | 
w:  *  O  ye şil  bah  | 
e2 {f}e=fed dedc (3B^ABd4^c2  | d4 =fed^c d2=cB cdc2 d2 | 
w:  *  *  *  *  çe *  le *  rin  *  *  *  *  gül  |  *  le *  ri  *  sol *  *  muş   | 
_3/4ef edgf edd4d3/2c/ B^ABc  | d4 d2g2 f2(3gfg e4 =f2 | 
w:  *  *  *  *  ku *  ru *  muş  SAZ  |  *  Bi li rim  *  *  *  sus  | 
ed dedc B^AB4c4(3BAB  | c4 B2d2 ^c2(3dcd B4 =c2 | 
w:  *  *  *  *  ma *  ya *  cak  kalb_  |  *  i  vî râ *  *  *  nım  | 
B3^AG2 A2B4d3/2c/ BABc  | d4 d2g2 f2(3gfg e4 =f2 | \
w:  *  *  da ki  kuş   SAZ  |  *  Bi li rim  *  *  *  sus  | 
ed dedc B^AB4c4(3BAB  | 
w:  *  *  *  *  ma *  ya *  cak  kalb_  | 
c4 B2d2 ^c2(3dcd B4 =c2 | B3^AG2 A2B4|
w:  *  i  vî râ *  *  *  nım  |  *  *  da ki  kuş    | 


